images/usecases/scada/data-processing.svg

<svg width="98" height="92" viewBox="0 0 92 92" fill="none" xmlns="http://www.w3.org/2000/svg">
<path d="M2.75 24C2.75 11.1594 13.1594 0.75 26 0.75H70C82.8406 0.75 93.25 11.1594 93.25 24V68C93.25 80.8406 82.8406 91.25 70 91.25H26C13.1594 91.25 2.75 80.8406 2.75 68V24Z" stroke="#3E9AF8" stroke-width="1.5"/>
<g filter="url(#filter0_d_10346_26544)">
<mask id="path-2-outside-1_10346_26544" maskUnits="userSpaceOnUse" x="20" y="17.4473" width="56" height="57" fill="black">
<rect fill="white" x="20" y="17.4473" width="56" height="57"/>
<path fill-rule="evenodd" clip-rule="evenodd" d="M49.932 26.0937C50.7618 26.1732 51.5821 25.7952 51.999 25.0732L52.9375 23.4476C53.4898 22.491 54.713 22.1633 55.6695 22.7155L64.3298 27.7155C65.2864 28.2678 65.6141 29.491 65.0619 30.4476L64.1237 32.0726C63.7061 32.7958 63.7899 33.6967 64.2758 34.3758C65.0227 35.4194 65.6716 36.538 66.2092 37.7179C66.5552 38.4772 67.2932 38.9996 68.1276 38.9996H70C71.1046 38.9996 72 39.895 72 40.9996V50.9996C72 52.1042 71.1046 52.9996 70 52.9996H68.1294C67.2948 52.9996 66.5567 53.5222 66.2108 54.2817C65.6731 55.4625 65.0239 56.5818 64.2766 57.6262C63.7908 58.3053 63.7071 59.2062 64.1246 59.9293L65.0619 61.5527C65.6141 62.5093 65.2864 63.7325 64.3298 64.2848L55.6695 69.2848C54.713 69.8371 53.4898 69.5093 52.9375 68.5527L52.0005 66.9298C51.5836 66.2077 50.7633 65.8297 49.9333 65.9093C49.2971 65.9703 48.6522 66.0016 48 66.0016C47.3476 66.0016 46.7025 65.9703 46.0661 65.9093C45.2362 65.8296 44.4158 66.2077 43.9989 66.9297L43.0619 68.5527C42.5096 69.5093 41.2864 69.8371 40.3298 69.2848L31.6696 64.2848C30.713 63.7325 30.3852 62.5093 30.9375 61.5527L31.8751 59.9288C32.2926 59.2057 32.2089 58.3048 31.723 57.6258C30.9759 56.5815 30.3268 55.4624 29.7892 54.2817C29.4433 53.5222 28.7052 52.9996 27.8706 52.9996H26C24.8954 52.9996 24 52.1042 24 50.9996V40.9996C24 39.895 24.8954 38.9996 26 38.9996H27.8724C28.7068 38.9996 29.4448 38.4772 29.7908 37.7179C30.3283 36.5381 30.9772 35.4198 31.7238 34.3762C32.2097 33.6972 32.2935 32.7962 31.876 32.0731L30.9375 30.4476C30.3852 29.491 30.713 28.2678 31.6695 27.7156L40.3298 22.7156C41.2864 22.1633 42.5096 22.491 43.0619 23.4476L44.0004 25.0733C44.4173 25.7953 45.2376 26.1733 46.0675 26.0937C46.7034 26.0328 47.3481 26.0016 48 26.0016C48.6517 26.0016 49.2962 26.0327 49.932 26.0937Z"/>
</mask>
<path d="M44.0004 25.0733L40.5363 27.0733L44.0004 25.0733ZM46.0675 26.0937L45.6857 22.112L46.0675 26.0937ZM31.7238 34.3762L34.9769 36.7039L31.7238 34.3762ZM31.876 32.0731L28.4119 34.0731L31.876 32.0731ZM29.7908 37.7179L26.1508 36.0593L29.7908 37.7179ZM29.7892 54.2817L26.1489 55.9396L29.7892 54.2817ZM31.8751 59.9288L35.3392 61.9288L31.8751 59.9288ZM31.723 57.6258L34.9762 55.2984L31.723 57.6258ZM30.9375 61.5527L27.4734 59.5527L30.9375 61.5527ZM46.0661 65.9093L46.4481 61.9276L46.0661 65.9093ZM43.9989 66.9297L47.463 68.9297L43.9989 66.9297ZM52.0005 66.9298L48.5364 68.9298L52.0005 66.9298ZM49.9333 65.9093L50.3153 69.891L49.9333 65.9093ZM55.6695 69.2848L57.6696 72.7489L55.6695 69.2848ZM52.9375 68.5527L49.4734 70.5527L52.9375 68.5527ZM65.0619 61.5527L61.5978 63.5527L65.0619 61.5527ZM64.2766 57.6262L67.5298 59.9537L64.2766 57.6262ZM66.2108 54.2817L62.5706 52.6239L66.2108 54.2817ZM66.2092 37.7179L69.8492 36.0593L66.2092 37.7179ZM64.1237 32.0726L67.5878 34.0726L64.1237 32.0726ZM64.2758 34.3758L61.0229 36.7035L64.2758 34.3758ZM64.3298 27.7155L62.3298 31.1797L64.3298 27.7155ZM65.0619 30.4476L61.5978 28.4476L65.0619 30.4476ZM51.999 25.0732L48.5349 23.0732L51.999 25.0732ZM40.3298 22.7156L38.3298 19.2514L40.3298 22.7156ZM43.0619 23.4476L46.526 21.4476L43.0619 23.4476ZM52.9375 23.4476L56.4016 25.4476L52.9375 23.4476ZM55.6695 22.7155L57.6695 19.2514L55.6695 22.7155ZM49.4734 21.4476L48.5349 23.0732L55.4631 27.0732L56.4016 25.4476L49.4734 21.4476ZM66.3298 24.2514L57.6695 19.2514L53.6695 26.1797L62.3298 31.1797L66.3298 24.2514ZM67.5878 34.0726L68.526 32.4476L61.5978 28.4476L60.6595 30.0726L67.5878 34.0726ZM61.0229 36.7035C61.6208 37.5391 62.1397 38.4337 62.5693 39.3764L69.8492 36.0593C69.2035 34.6422 68.4245 33.2998 67.5288 32.048L61.0229 36.7035ZM70 34.9996H68.1276V42.9996H70V34.9996ZM76 50.9996V40.9996H68V50.9996H76ZM68.1294 56.9996H70V48.9996H68.1294V56.9996ZM62.5706 52.6239C62.1409 53.5673 61.6218 54.4625 61.0235 55.2987L67.5298 59.9537C68.426 58.7011 69.2052 57.3578 69.8511 55.9396L62.5706 52.6239ZM68.526 59.5527L67.5887 57.9293L60.6604 61.9293L61.5978 63.5527L68.526 59.5527ZM57.6696 72.7489L66.3298 67.7489L62.3298 60.8207L53.6695 65.8207L57.6696 72.7489ZM48.5364 68.9298L49.4734 70.5527L56.4016 66.5527L55.4646 64.9298L48.5364 68.9298ZM49.5514 61.9276C49.042 61.9765 48.5245 62.0016 48 62.0016V70.0016C48.7799 70.0016 49.5523 69.9642 50.3153 69.891L49.5514 61.9276ZM48 62.0016C47.4754 62.0016 46.9577 61.9764 46.4481 61.9276L45.6841 69.891C46.4473 69.9642 47.2198 70.0016 48 70.0016V62.0016ZM40.5348 64.9297L39.5978 66.5527L46.526 70.5527L47.463 68.9297L40.5348 64.9297ZM42.3298 65.8207L33.6696 60.8207L29.6696 67.7489L38.3298 72.7489L42.3298 65.8207ZM34.4016 63.5527L35.3392 61.9288L28.411 57.9288L27.4734 59.5527L34.4016 63.5527ZM34.9762 55.2984C34.3781 54.4623 33.859 53.5671 33.4294 52.6239L26.1489 55.9396C26.7947 57.3576 27.5738 58.7007 28.4699 59.9532L34.9762 55.2984ZM27.8706 48.9996H26V56.9996H27.8706V48.9996ZM28 50.9996V40.9996H20V50.9996H28ZM26 42.9996H27.8724V34.9996H26V42.9996ZM33.4307 39.3764C33.8602 38.4339 34.379 37.5394 34.9769 36.7039L28.4708 32.0486C27.5753 33.3002 26.7965 34.6424 26.1508 36.0593L33.4307 39.3764ZM27.4734 32.4476L28.4119 34.0731L35.3401 30.0731L34.4016 28.4476L27.4734 32.4476ZM38.3298 19.2514L29.6695 24.2515L33.6695 31.1797L42.3298 26.1797L38.3298 19.2514ZM47.4645 23.0733L46.526 21.4476L39.5978 25.4476L40.5363 27.0733L47.4645 23.0733ZM46.4492 30.0755C46.9585 30.0266 47.4757 30.0016 48 30.0016V22.0016C47.2204 22.0016 46.4484 22.0389 45.6857 22.112L46.4492 30.0755ZM48 30.0016C48.5241 30.0016 49.0412 30.0266 49.5503 30.0754L50.3136 22.1119C49.5512 22.0388 48.7794 22.0016 48 22.0016V30.0016ZM40.5363 27.0733C41.8134 29.2853 44.2192 30.2893 46.4492 30.0755L45.6857 22.112C46.256 22.0573 47.0211 22.3053 47.4645 23.0733L40.5363 27.0733ZM34.4016 28.4476C34.9539 29.4042 34.6261 30.6274 33.6695 31.1797L29.6695 24.2515C26.7998 25.9083 25.8165 29.5778 27.4734 32.4476L34.4016 28.4476ZM34.9769 36.7039C36.2828 34.8787 36.6192 32.2887 35.3401 30.0731L28.4119 34.0731C27.9677 33.3038 28.1367 32.5156 28.4708 32.0486L34.9769 36.7039ZM27.8724 42.9996C30.4295 42.9996 32.5019 41.415 33.4307 39.3764L26.1508 36.0593C26.3877 35.5395 26.9842 34.9996 27.8724 34.9996V42.9996ZM28 40.9996C28 42.1042 27.1046 42.9996 26 42.9996V34.9996C22.6863 34.9996 20 37.6859 20 40.9996H28ZM26 48.9996C27.1046 48.9996 28 49.895 28 50.9996H20C20 54.3133 22.6863 56.9996 26 56.9996V48.9996ZM33.4294 52.6239C32.5008 50.5848 30.4282 48.9996 27.8706 48.9996V56.9996C26.9823 56.9996 26.3857 56.4595 26.1489 55.9396L33.4294 52.6239ZM35.3392 61.9288C36.6183 59.7134 36.282 57.1235 34.9762 55.2984L28.4699 59.9532C28.1357 59.4862 27.9669 58.698 28.411 57.9288L35.3392 61.9288ZM33.6696 60.8207C34.6261 61.373 34.9539 62.5961 34.4016 63.5527L27.4734 59.5527C25.8165 62.4225 26.7998 66.092 29.6696 67.7489L33.6696 60.8207ZM39.5978 66.5527C40.15 65.5961 41.3732 65.2684 42.3298 65.8207L38.3298 72.7489C41.1996 74.4057 44.8691 73.4225 46.526 70.5527L39.5978 66.5527ZM46.4481 61.9276C44.218 61.7136 41.812 62.7175 40.5348 64.9297L47.463 68.9297C47.0196 69.6978 46.2543 69.9457 45.6841 69.891L46.4481 61.9276ZM55.4646 64.9298C54.1874 62.7177 51.7816 61.7137 49.5514 61.9276L50.3153 69.891C49.745 69.9457 48.9798 69.6978 48.5364 68.9298L55.4646 64.9298ZM53.6695 65.8207C54.6261 65.2684 55.8493 65.5961 56.4016 66.5527L49.4734 70.5527C51.1303 73.4225 54.7998 74.4057 57.6696 72.7489L53.6695 65.8207ZM61.5978 63.5527C61.0455 62.5961 61.3732 61.373 62.3298 60.8207L66.3298 67.7489C69.1996 66.092 70.1828 62.4225 68.526 59.5527L61.5978 63.5527ZM61.0235 55.2987C59.7177 57.1239 59.3813 59.7138 60.6604 61.9293L67.5887 57.9293C68.0328 58.6985 67.8639 59.4867 67.5298 59.9537L61.0235 55.2987ZM68.1294 48.9996C65.5718 48.9996 63.4992 50.5848 62.5706 52.6239L69.8511 55.9396C69.6143 56.4595 69.0177 56.9996 68.1294 56.9996V48.9996ZM68 50.9996C68 49.895 68.8954 48.9996 70 48.9996V56.9996C73.3137 56.9996 76 54.3133 76 50.9996H68ZM70 42.9996C68.8954 42.9996 68 42.1042 68 40.9996H76C76 37.6859 73.3137 34.9996 70 34.9996V42.9996ZM62.5693 39.3764C63.4981 41.415 65.5705 42.9996 68.1276 42.9996V34.9996C69.0158 34.9996 69.6123 35.5395 69.8492 36.0593L62.5693 39.3764ZM60.6595 30.0726C59.3804 32.2882 59.7168 34.8783 61.0229 36.7035L67.5288 32.048C67.863 32.5151 68.0319 33.3033 67.5878 34.0726L60.6595 30.0726ZM62.3298 31.1797C61.3732 30.6274 61.0455 29.4042 61.5978 28.4476L68.526 32.4476C70.1828 29.5778 69.1996 25.9083 66.3298 24.2514L62.3298 31.1797ZM48.5349 23.0732C48.9782 22.3052 49.7434 22.0573 50.3136 22.1119L49.5503 30.0754C51.7803 30.2892 54.186 29.2852 55.4631 27.0732L48.5349 23.0732ZM42.3298 26.1797C41.3732 26.7319 40.15 26.4042 39.5978 25.4476L46.526 21.4476C44.8691 18.5778 41.1996 17.5946 38.3298 19.2514L42.3298 26.1797ZM56.4016 25.4476C55.8493 26.4042 54.6261 26.7319 53.6695 26.1797L57.6695 19.2514C54.7998 17.5946 51.1303 18.5778 49.4734 21.4476L56.4016 25.4476Z" fill="#305680" mask="url(#path-2-outside-1_10346_26544)"/>
<path fill-rule="evenodd" clip-rule="evenodd" d="M48 60.002C55.732 60.002 62 53.7339 62 46.002C62 38.27 55.732 32.002 48 32.002C40.268 32.002 34 38.27 34 46.002C34 53.7339 40.268 60.002 48 60.002ZM48 52.002C51.3137 52.002 54 49.3157 54 46.002C54 42.6882 51.3137 40.002 48 40.002C44.6863 40.002 42 42.6882 42 46.002C42 49.3157 44.6863 52.002 48 52.002Z" fill="#2A7DEC"/>
</g>
<defs>
<filter id="filter0_d_10346_26544" x="-2" y="6" width="100" height="100" filterUnits="userSpaceOnUse" color-interpolation-filters="sRGB">
<feFlood flood-opacity="0" result="BackgroundImageFix"/>
<feColorMatrix in="SourceAlpha" type="matrix" values="0 0 0 0 0 0 0 0 0 0 0 0 0 0 0 0 0 0 127 0" result="hardAlpha"/>
<feOffset dy="10"/>
<feGaussianBlur stdDeviation="10"/>
<feColorMatrix type="matrix" values="0 0 0 0 0 0 0 0 0 0 0 0 0 0 0 0 0 0 0.1 0"/>
<feBlend mode="normal" in2="BackgroundImageFix" result="effect1_dropShadow_10346_26544"/>
<feBlend mode="normal" in="SourceGraphic" in2="effect1_dropShadow_10346_26544" result="shape"/>
</filter>
</defs>
</svg>

<svg width="98" height="92" viewBox="0 0 92 92" fill="none" xmlns="http://www.w3.org/2000/svg"><path d="M2.75 24C2.75 11.16 13.16.75 26 .75h44C82.84.75 93.25 11.16 93.25 24v44c0 12.84-10.41 23.25-23.25 23.25H26C13.16 91.25 2.75 80.84 2.75 68V24Z" stroke="#3E9AF8" stroke-width="1.5"/><g filter="url(#a)"><mask id="b" maskUnits="userSpaceOnUse" x="20" y="17.447" width="56" height="57" fill="#000"><path fill="#fff" d="M20 17.447h56v57H20z"/><path fill-rule="evenodd" clip-rule="evenodd" d="M49.932 26.094c.83.08 1.65-.299 2.067-1.02l.938-1.626a2 2 0 0 1 2.733-.733l8.66 5a2 2 0 0 1 .732 2.733l-.938 1.625c-.418.723-.334 1.624.152 2.303a19.97 19.97 0 0 1 1.933 3.342c.346.76 1.084 1.282 1.919 1.282H70a2 2 0 0 1 2 2v10a2 2 0 0 1-2 2h-1.87c-.835 0-1.573.522-1.92 1.282a19.97 19.97 0 0 1-1.933 3.344c-.486.68-.57 1.58-.152 2.303l.937 1.624a2 2 0 0 1-.732 2.732l-8.66 5a2 2 0 0 1-2.733-.732l-.936-1.623c-.417-.722-1.238-1.1-2.068-1.02a20.252 20.252 0 0 1-3.867 0c-.83-.08-1.65.298-2.067 1.02l-.937 1.623a2 2 0 0 1-2.732.732l-8.66-5a2 2 0 0 1-.733-2.732l.938-1.624c.418-.723.334-1.624-.152-2.303a19.972 19.972 0 0 1-1.934-3.344c-.346-.76-1.084-1.282-1.918-1.282H26a2 2 0 0 1-2-2V41a2 2 0 0 1 2-2h1.872c.835 0 1.573-.523 1.919-1.282a19.982 19.982 0 0 1 1.933-3.342c.486-.679.57-1.58.152-2.303l-.939-1.625a2 2 0 0 1 .732-2.732l8.66-5a2 2 0 0 1 2.733.732L44 25.073c.417.722 1.238 1.1 2.068 1.02a20.268 20.268 0 0 1 3.864 0Z"/></mask><path d="m44 25.073-3.464 2 3.464-2Zm2.068 1.02-.382-3.981.382 3.982Zm-14.344 8.283 3.253 2.328-3.253-2.328Zm.152-2.303-3.464 2 3.464-2Zm-2.085 5.645-3.64-1.659 3.64 1.659Zm-.002 16.564-3.64 1.658 3.64-1.658Zm2.086 5.647 3.464 2-3.464-2Zm-.152-2.303 3.253-2.328-3.253 2.328Zm-.785 3.927-3.465-2 3.465 2Zm15.128 4.356.382-3.981-.382 3.981ZM44 66.93l3.464 2-3.464-2Zm8.002 0-3.465 2 3.465-2Zm-2.068-1.02.382 3.982-.382-3.982Zm5.736 3.376 2 3.464-2-3.464Zm-2.731-.732-3.465 2 3.465-2Zm12.124-7-3.464 2 3.464-2Zm-.785-3.927 3.253 2.328-3.253-2.328Zm1.934-3.344-3.64-1.658 3.64 1.658Zm-.002-16.564 3.64-1.659-3.64 1.659Zm-2.085-5.645 3.464 2-3.464-2Zm.152 2.303-3.253 2.328 3.253-2.328Zm.054-6.66-2 3.464 2-3.465Zm.732 2.732-3.464-2 3.464 2Zm-13.063-5.375-3.464-2 3.464 2Zm-11.67-2.357-2-3.465 2 3.465Zm2.733.732 3.464-2-3.464 2Zm9.876 0 3.464 2-3.465-2Zm2.731-.733 2-3.464-2 3.464Zm-6.196-1.267-.938 1.625 6.928 4 .939-1.625-6.929-4ZM66.33 24.25l-8.66-5-4 6.929 8.66 5 4-6.929Zm1.258 9.822.938-1.625-6.928-4-.938 1.625 6.928 4Zm-6.565 2.63c.598.836 1.117 1.73 1.546 2.673l7.28-3.317a23.983 23.983 0 0 0-2.32-4.011l-6.506 4.655ZM70 35h-1.872v8H70v-8Zm6 16V41h-8v10h8Zm-7.87 6H70v-8h-1.87v8Zm-5.56-4.376c-.43.943-.948 1.838-1.547 2.675l6.507 4.655a23.98 23.98 0 0 0 2.321-4.014l-7.28-3.316Zm5.956 6.929-.937-1.624-6.929 4 .938 1.624 6.928-4ZM57.67 72.749l8.66-5-4-6.928-8.66 5 4 6.928Zm-9.134-3.82.937 1.624 6.929-4-.937-1.623-6.929 4Zm1.015-7.001c-.509.049-1.026.074-1.551.074v8c.78 0 1.552-.038 2.315-.111l-.764-7.963ZM48 62.002c-.525 0-1.042-.026-1.552-.074l-.764 7.963c.763.073 1.536.11 2.316.11v-8Zm-7.465 2.928-.937 1.623 6.928 4 .937-1.623-6.928-4Zm1.795.89-8.66-5-4 6.929 8.66 5 4-6.928Zm-7.928-2.267.937-1.624-6.928-4-.938 1.624 6.929 4Zm.574-8.255a15.988 15.988 0 0 1-1.547-2.674l-7.28 3.316a23.978 23.978 0 0 0 2.32 4.013l6.507-4.655ZM27.871 49H26v8h1.87v-8ZM28 51V41h-8v10h8Zm-2-8h1.872v-8H26v8Zm7.43-3.624c.43-.942.949-1.837 1.547-2.672l-6.506-4.655a23.99 23.99 0 0 0-2.32 4.01l7.28 3.317Zm-5.957-6.928.939 1.625 6.928-4-.938-1.625-6.929 4ZM38.33 19.25l-8.66 5 4 6.929 8.66-5-4-6.929Zm9.135 3.822-.939-1.625-6.928 4 .938 1.625 6.928-4Zm-1.016 7.003c.51-.05 1.027-.074 1.551-.074v-8c-.78 0-1.552.037-2.314.11l.763 7.964ZM48 30.002c.524 0 1.041.025 1.55.073l.764-7.963a24.236 24.236 0 0 0-2.314-.11v8Zm-7.464-2.929c1.277 2.212 3.683 3.216 5.913 3.003l-.763-7.964c.57-.055 1.335.193 1.779.961l-6.929 4Zm-6.134 1.375a2 2 0 0 1-.733 2.732l-4-6.928a6 6 0 0 0-2.196 8.196l6.929-4Zm.575 8.256c1.306-1.825 1.642-4.415.363-6.63l-6.928 4c-.444-.77-.275-1.558.059-2.025l6.506 4.655ZM27.872 43c2.558 0 4.63-1.585 5.559-3.624l-7.28-3.317c.237-.52.833-1.06 1.721-1.06v8ZM28 41a2 2 0 0 1-2 2v-8a6 6 0 0 0-6 6h8Zm-2 8a2 2 0 0 1 2 2h-8a6 6 0 0 0 6 6v-8Zm7.43 3.624C32.5 50.584 30.427 49 27.87 49v8c-.888 0-1.484-.54-1.721-1.06l7.28-3.316Zm1.91 9.305c1.278-2.216.942-4.806-.364-6.63l-6.506 4.654c-.334-.467-.503-1.255-.059-2.024l6.928 4Zm-1.67-1.108a2 2 0 0 1 .732 2.732l-6.929-4a6 6 0 0 0 2.197 8.196l4-6.928Zm5.928 5.732a2 2 0 0 1 2.732-.732l-4 6.928a6 6 0 0 0 8.196-2.196l-6.928-4Zm6.85-4.625c-2.23-.214-4.636.79-5.913 3.002l6.928 4c-.443.768-1.209 1.016-1.779.961l.764-7.963Zm9.017 3.002c-1.278-2.212-3.683-3.216-5.914-3.002l.764 7.963c-.57.055-1.335-.193-1.779-.961l6.929-4Zm-1.796.89a2 2 0 0 1 2.733.733l-6.929 4a6 6 0 0 0 8.197 2.196l-4-6.928Zm7.929-2.267a2 2 0 0 1 .732-2.732l4 6.928a6 6 0 0 0 2.196-8.196l-6.928 4Zm-.575-8.254c-1.305 1.825-1.642 4.415-.363 6.63l6.929-4c.444.77.275 1.558-.06 2.025l-6.505-4.655Zm7.106-6.3c-2.557 0-4.63 1.586-5.558 3.625l7.28 3.316c-.237.52-.833 1.06-1.722 1.06v-8ZM68 51a2 2 0 0 1 2-2v8a6 6 0 0 0 6-6h-8Zm2-8a2 2 0 0 1-2-2h8a6 6 0 0 0-6-6v8Zm-7.43-3.623c.928 2.039 3 3.624 5.558 3.624v-8c.888 0 1.484.54 1.721 1.06l-7.28 3.316Zm-1.91-9.303c-1.28 2.215-.943 4.805.363 6.63l6.506-4.655c.334.467.503 1.255.059 2.025l-6.928-4Zm1.67 1.107a2 2 0 0 1-.732-2.732l6.928 4a6 6 0 0 0-2.196-8.197l-4 6.929Zm-13.795-8.107c.443-.768 1.208-1.016 1.779-.961l-.764 7.963c2.23.214 4.636-.79 5.913-3.002l-6.928-4ZM42.33 26.18a2 2 0 0 1-2.732-.732l6.928-4a6 6 0 0 0-8.196-2.197l4 6.929Zm14.072-.732a2 2 0 0 1-2.733.732l4-6.929a6 6 0 0 0-8.196 2.197l6.929 4Z" fill="#305680" mask="url(#b)"/><path fill-rule="evenodd" clip-rule="evenodd" d="M48 60.002c7.732 0 14-6.268 14-14s-6.268-14-14-14-14 6.268-14 14 6.268 14 14 14Zm0-8a6 6 0 1 0 0-12 6 6 0 0 0 0 12Z" fill="#2A7DEC"/></g><defs><filter id="a" x="-2" y="6" width="100" height="100" filterUnits="userSpaceOnUse" color-interpolation-filters="sRGB"><feFlood flood-opacity="0" result="BackgroundImageFix"/><feColorMatrix in="SourceAlpha" values="0 0 0 0 0 0 0 0 0 0 0 0 0 0 0 0 0 0 127 0" result="hardAlpha"/><feOffset dy="10"/><feGaussianBlur stdDeviation="10"/><feColorMatrix values="0 0 0 0 0 0 0 0 0 0 0 0 0 0 0 0 0 0 0.1 0"/><feBlend in2="BackgroundImageFix" result="effect1_dropShadow_10346_26544"/><feBlend in="SourceGraphic" in2="effect1_dropShadow_10346_26544" result="shape"/></filter></defs></svg>
